X:1
T:YOU'RE TALKING RAGTIME.
T:YOU'RE TALKING RAGTIME.
T:Written and Composed by The Beaumont Sisters.
T:Copyright 1899 by T.B.HARMS &amp; Co
T:Copyright 1899 by T.B.HARMS &amp; Co
T:Copyright 1899 by T.B.HARMS &amp; Co
T:Copyright 1899 by T.B.HARMS &amp; Co
C:Written and Composed by The Beaumont Sisters.
Z:Copyright 1899 by T.B.HARMS & Co
%%score ( 1 2 ) { ( 3 5 ) | ( 4 6 ) }
L:1/8
Q:1/4=100
M:2/4
K:Eb
V:1 treble nm="Voice"
V:2 treble 
V:3 treble nm="Piano"
V:5 treble 
V:4 bass 
V:6 bass 
V:1
 z2 z | z4 | z4 | z4 | z4 | z4 | z4 | z4 | z2 z || B | G B F B | G B F B | E G e c | B2 z B | %14
w: |||||||||1.Jim|John- son loved Miss|nan- cy Green, but|what do you sup-|pose, He|
w: |||||||||2.Jim|John- son felt in-|sult- ed at the|way Miss Nan- cy|spoke, The|
 A c G B | A"_enough" c G A | F d c F | B2 z B | G B F B | G"_himself" B F B | E G e c | B2 z B | %22
w: could- n't get up|nerve * * to|go in and pro-|pose; Un-|til one night he|filled * * with|good old Rock and|Rye, Then|
w: more he tried to|talk, the more that|coon would near- ly|choke; Miss|Nan- cy got her|par- a- sol and|held it o'er her|head, Be-|
 c e _c e | B c G c | c e e d | e2 z B/ B/ | BF c_c | B3 B | B=B c_c | B2 z B | %30
w: sail'd down to Miss|Nan- cy's house, To|win her hand or|die. When he|met her at the|door, His|nerve gave out one|more; He|
w: cause it rain'd in|buck- et- fuls At|ev'- ry word Jim|said. Then he|grew black in the|face From|talk- ing out of|place; He|
"_mutter'd""_hammer'd" B/ B/ F/ F/ B/ B/ G/ G/ | %31
w: * * and he stut- ter'd, And the|
w: * * and he clam- or'd, And the|
 B/ B/"_darkey""_Johnson            stammer'd" F/ F/ B/ B/ G/ G/ | B =B c ^c | d2 z B | %34
w: words that * * ut- ter'd Made Miss|Nan- cy feel dead|sore, and|
w: way Jim * * * * Brought him|fur- ther in dis-|grace, and|
"^rit." B3 B | B2-[Q:1/4=70] B ||[M:2/4]"^rit.""^CHORUS." B c e |:"^a tempo"[Q:1/4=100] d2 d2- | %38
w: then she|said: _|You're talk- ing|rag- time,|
w: then she|said: _|_ _ _||
 d A B d | c2 c2- | c G F E | D2 B2- | B A =E F | B4- | B B c e | d2 d2- | d A B d | c2 c2- | %48
w: * You're talk- ing|drag- time,|* Can't un- der-|stand, sir,|_ one word you|say.|_ If that ain't|rag- time,|_ It must be|jag- time!|
w: ||||||||||
 c G A B | c e e e | d2 B2 |1 e4- |"^rit." e B c e :|2 e4- | e!D.C.! |] %55
w: _ It's aw- ful|fun- ny when you|talk that|way.|* You're talk- ing|way.|_|
w: |||||||
V:2
 x3 | x4 | x4 | x4 | x4 | x4 | x4 | x4 | x3 || x | x4 | x4 | x4 | x4 | x4 | x4 | x4 | x4 | x4 | %19
w: |||||||||||||||||||
 x4 | x4 | x4 | x4 | x4 | x4 | x4 | x4 | x4 | x4 | x4 | x4 | x4 | x4 | x4 | x4 | x3 ||[M:2/4] x3 |: %37
w: ||||||||||||||||||
 x4 | x4 | x4 | x4 | x4 | x4 | x4 | x4 | x4 | x4 | x4 | x4 | x4 | x4 |1 z B B B | B x3 :|2 x4 | %54
w: ||||||||||||||Ha! Ha! Ha!|Ha!||
 x |] %55
w: |
V:3
!f! [Bb][cc'][ee'] | [dad']2 !>![dad']2- | [dad'][Aa][Bb][dd'] | [cgc']2 !>![cgc']2- | %4
 [cgc'][Gg][Aa][Bb] | [cc'][ec'e'][fc'e'][^fc'e'] | !>![=fabd']2 !>![dfab]2 | [egbe']4- | %8
 [egbe']2 z || B | GBFB | GBFB | EGec | B2 z B | AcGB | AcGA | FdcF | B2 z B | GBFB | GBFB | EGec | %21
 B2 z B | ce_ce | BcGc | [=Ac][Ae][_Ae][Ad] | [Ge]3 B/B/ | BF (c_c) | [DB]2- [DB]B | %28
!<(! [FAB][FA=B][FAc][FA_c]!<)! | [FAB]3 B | B/B/F/F/ B/B/G/G/ | B/B/F/F/ B/B/G/G/ | %32
 [FAB][FA=B][FAc][FA^c] | [FAd]3 B | B3 B | B z !^![Bdfb] ||[M:2/4]"_rit." [GB][Gc][Ge] |: %37
"_a tempo" [Ad]2 !>![Ad]2- | [Ad][FA] [AB][Ad] | [Gc]2 !>![Gc]2- | [Gc](GFE) | D2 [DB]2- | %42
 [DB][DA][^C=E][DF] | B4- | B[B,EB][CEc][EBe] | [Ad]2 !>![Ad]2- | [Ad][FA] [AB][Ad] | %47
 [Gc]2 !>![Gc]2- | [Gc]G[FA][GB] | [Ac][Ece][Fce][^Fce] | [=FABd]2 [DFAB]2 |1 %51
 [EGBe][B,B][B,B][B,B] | [B,B]"_rit."[B,EB][CEc][EBe] :|2 ([EGBe]4 | [egbe']) |] %55
V:4
 z z2 | F,[A,B,D] B,,[A,B,D] | F,[A,B,D] B,,[A,B,D] | E,[G,B,E] B,,[G,B,E] | E,[E,E][D,D][_D,_D] | %5
 [C,C][A,,A,][A,,A,][=A,,=A,] | !>![B,,B,]2 !>![B,,B,]2 | [E,E]>[C,C][B,,B,][G,,G,] | [E,,E,]2 z || %9
 z | E,[G,B,E] B,,[A,B,D] | E,[G,B,E] B,,[A,B,D] | E,[G,B,E] E,[^F,=A,E] | E,[G,B,E] [G,B,E] z | %14
 F,[A,C] =E,[B,C] | F,[A,C] =E,[B,C] | F,[B,D] F,[=A,E] | B,,[F,B,D] [F,B,D] z | %18
 E,[G,B,E] B,,[A,B,D] | E,[G,B,E] B,,[A,B,D] | E,[G,B,E] E,[^F,=A,E] | E,[G,B,E] [G,B,E] z | %22
 A,[CE] A,[_CE] | G,[B,E] E,[G,B,E] | F,,[F,CE] B,,[_A,B,D] | [E,G,B,E][B,,B,] [E,,E,] z | %26
 F,2 (G,_G,) | F,2- F, z | D_DC^C | (DG,) C2 | [B,,F,]2 [B,,G,]2 | [B,,A,]2 [B,,G,]2 | %32
 [D,D][_D,_D][C,C][_C,_C] | (B,B,,) z2 |"^rit." z [B,,F,][B,,F,][B,,G,] | [B,,B,] z !^![B,,,B,,] || %36
[M:2/4] z z2 |: F,[A,B,D] B,,[A,B,D] | F,[A,B,D] B,,[A,B,D] | E,[G,B,E] B,,[G,B,E] | (E,B,A,G,) | %41
 F,[A,B,] B,,[A,B,] | F,[A,B,] B,,[A,B,] | E,zB,, z | G,2 _G,2 | F,[A,B,D] B,,[A,B,D] | %46
 F,[A,B,D] B,,[A,B,D] | E,[G,B,E] B,,[G,B,E] | E,ED_D | CA,A,=A, | B,2 B,,2 |1 [E,,E,] z z2 | %52
 z G,G,_G, :|2 [E,,E,]>[C,C][B,,B,][G,,G,] |"^D.C." [E,,E,] |] %55
V:5
 x3 | x4 | x4 | x4 | x4 | x4 | x4 | x4 | x3 || x | x4 | x4 | x4 | x4 | x4 | x4 | x4 | x4 | x4 | %19
 x4 | x4 | x4 | x4 | x4 | x4 | x4 | D2 E2 | x4 | x4 | x4 | [DF]2 [EG]2 | [DF]2 [EG]2 | x4 | x4 | %34
 z [B,D][B,D][B,E] | [B,F] x2 ||[M:2/4] x3 |: x4 | x4 | x4 | x4 | x4 | x4 | z [B,EG]z[B,EG] | x4 | %45
 x4 | x4 | x4 | x4 | x4 | x4 |1 x4 | x4 :|2 x4 | x |] %55
V:6
 x3 | x4 | x4 | x4 | x4 | x4 | x4 | x4 | x3 || x | x4 | x4 | x4 | x4 | x4 | x4 | x4 | x4 | x4 | %19
 x4 | x4 | x4 | x4 | x4 | x4 | x4 | B,,2 B,,2 | B,,2- B,, x | x4 | x4 | x4 | x4 | x4 | x4 | x4 | %35
 x3 ||[M:2/4] x3 |: x4 | x4 | x4 | x4 | x4 | x4 | x4 | x4 | x4 | x4 | x4 | x4 | x4 | x4 |1 x4 | %52
 x4 :|2 x4 | x |] %55

